public/logos/SX.svg

<?xml version="1.0" encoding="UTF-8"?>
<svg xmlns="http://www.w3.org/2000/svg" xmlns:xlink="http://www.w3.org/1999/xlink" width="176pt" height="57.78pt" viewBox="0 0 176 57.78" version="1.1">
<defs>
<clipPath id="clip1">
  <path d="M 47 24 L 74 24 L 74 57.78125 L 47 57.78125 Z M 47 24 "/>
</clipPath>
</defs>
<g id="surface1">
<g clip-path="url(#clip1)" clip-rule="nonzero">
<path style=" stroke:none;fill-rule:nonzero;fill:rgb(95.698547%,45.028687%,8.912659%);fill-opacity:1;" d="M 49.632812 57.632812 L 47.695312 57.402344 L 47.589844 54.761719 L 47.488281 52.117188 L 49.410156 52.234375 C 51.679688 52.375 53.730469 51.558594 54.3125 50.277344 C 54.867188 49.0625 54.394531 47.328125 51.078125 38.371094 C 49.496094 34.105469 48.265625 30.363281 48.34375 30.050781 C 48.417969 29.738281 49.257812 28.441406 50.203125 27.167969 L 51.921875 24.851562 L 56.589844 24.800781 L 57.957031 31.726562 C 58.707031 35.535156 59.496094 38.890625 59.710938 39.183594 C 60.664062 40.488281 61.117188 39.332031 62.511719 32.066406 L 63.898438 24.800781 L 73.515625 24.800781 L 72.542969 27.886719 C 66.367188 47.417969 65.75 49.015625 62.871094 52.929688 C 61.96875 54.15625 60.441406 55.652344 59.347656 56.375 C 57.574219 57.554688 57.1875 57.664062 54.496094 57.757812 C 52.886719 57.816406 50.699219 57.757812 49.632812 57.632812 "/>
</g>
<path style=" stroke:none;fill-rule:nonzero;fill:rgb(95.698547%,45.028687%,8.912659%);fill-opacity:1;" d="M 4.167969 47.4375 L 0.03125 46.777344 L 0.0859375 43.949219 C -0.0195312 41.578125 -0.269531 41.859375 1.15625 42.273438 C 5.722656 43.589844 10.644531 43.933594 12.535156 42.78125 C 13.976562 41.902344 14.085938 40.589844 12.785156 39.738281 C 12.292969 39.414062 10.347656 38.839844 8.46875 38.457031 C 2.773438 37.300781 0.589844 35.800781 0.0976562 32.707031 C -0.855469 26.757812 5.941406 23.25 16.238281 24.375 C 21.273438 24.925781 21.085938 24.800781 21.085938 27.484375 C 21.085938 30.058594 21.375 29.933594 17.207031 29.1875 C 13.523438 28.527344 11.082031 28.777344 9.925781 29.9375 C 8.941406 30.921875 8.886719 31.546875 9.71875 32.296875 C 10.355469 32.875 11.28125 33.125 16.667969 34.175781 C 19.398438 34.707031 20.023438 34.972656 21.210938 36.078125 C 22.386719 37.175781 22.609375 37.625 22.761719 39.195312 C 22.972656 41.417969 22.214844 43.644531 20.777344 45.027344 C 18.121094 47.566406 10.777344 48.632812 4.167969 47.4375 "/>
<path style=" stroke:none;fill-rule:nonzero;fill:rgb(95.698547%,45.028687%,8.912659%);fill-opacity:1;" d="M 83.933594 30.085938 C 86.421875 30.085938 87.691406 31.980469 87.691406 35.667969 C 87.691406 38.175781 87.234375 39.828125 86.238281 40.890625 C 85.386719 41.792969 83.136719 42.019531 81.929688 41.320312 C 80.882812 40.710938 80.289062 38.761719 80.289062 35.933594 C 80.289062 31.6875 81.292969 30.085938 83.933594 30.085938 Z M 70.421875 13.863281 L 70.421875 23.035156 L 72.335938 23.035156 C 73.605469 23.035156 74.4375 23.230469 74.804688 23.597656 C 75.109375 23.902344 75.355469 24.175781 75.355469 24.214844 C 75.355469 24.253906 74.246094 27.765625 72.886719 32.023438 C 70.464844 39.625 70.421875 39.839844 70.421875 43.566406 L 70.421875 47.355469 L 79.585938 47.355469 L 79.585938 45.667969 C 79.585938 44.128906 80.027344 43.125 80.695312 43.125 C 80.839844 43.125 81.304688 43.769531 81.742188 44.546875 C 82.574219 46.027344 83.628906 46.90625 85.398438 47.597656 C 88.363281 48.757812 92.945312 47.761719 95.246094 45.460938 C 97.207031 43.5 97.949219 41.359375 98.175781 36.9375 C 98.546875 29.71875 96.050781 25.484375 90.785156 24.378906 C 88.253906 23.847656 86.429688 23.902344 83.289062 26.050781 C 81.996094 26.9375 81.128906 27.894531 80.960938 27.726562 C 80.796875 27.5625 80.617188 24.410156 80.566406 20.734375 L 80.199219 13.914062 L 70.421875 13.863281 "/>
<path style=" stroke:none;fill-rule:nonzero;fill:rgb(95.698547%,45.028687%,8.912659%);fill-opacity:1;" d="M 100.238281 47.542969 C 99.480469 47.269531 98.566406 46.753906 98.203125 46.390625 C 97.554688 45.746094 97.5625 45.6875 98.414062 43.8125 C 100.90625 38.332031 100.363281 30.429688 97.222656 26.527344 C 96.636719 25.792969 96.019531 24.886719 96.019531 24.777344 L 106.375 24.800781 L 106.375 40.339844 L 107.238281 41.207031 C 108.453125 42.417969 110.304688 42.390625 111.285156 41.144531 C 111.972656 40.269531 112.015625 39.769531 112.015625 32.507812 L 112.015625 24.800781 L 122.234375 24.800781 L 122.234375 47.359375 L 112.71875 47.359375 L 112.71875 45.585938 C 112.71875 43.226562 112.046875 42.964844 110.316406 44.644531 C 107.257812 47.613281 103.484375 48.699219 100.238281 47.542969 "/>
<path style=" stroke:none;fill-rule:nonzero;fill:rgb(95.698547%,45.028687%,8.912659%);fill-opacity:1;" d="M 21.523438 46.425781 C 23.347656 45.125 24.421875 42.789062 24.414062 40.132812 C 24.402344 37.46875 23.53125 35.605469 21.734375 34.414062 C 20.699219 33.730469 20.378906 33.285156 20.378906 32.53125 C 20.378906 31.71875 20.546875 31.527344 21.347656 31.433594 L 22.316406 31.324219 L 22.519531 23.730469 L 21.4375 23.515625 L 20.359375 23.300781 L 20.457031 18.675781 L 20.511719 13.917969 L 30.597656 13.933594 L 30.597656 23.90625 C 30.597656 37.023438 30.433594 36.851562 35.707031 29.203125 L 38.738281 24.800781 L 44.40625 24.800781 C 48.882812 24.800781 50.046875 24.714844 49.777344 25.0625 C 45.199219 31.003906 42.933594 34.285156 42.933594 34.75 C 42.933594 35.285156 48.785156 45.066406 49.863281 46.328125 C 50.121094 46.636719 50.335938 46.992188 50.335938 47.121094 C 50.335938 47.253906 47.730469 47.359375 44.546875 47.359375 L 38.753906 47.359375 L 38.082031 46.390625 C 37.710938 45.855469 36.257812 43.316406 34.847656 40.75 C 33.441406 38.179688 32.140625 35.984375 31.957031 35.871094 C 31.777344 35.757812 31.394531 35.859375 31.113281 36.09375 C 30.703125 36.433594 30.597656 37.625 30.597656 41.9375 L 30.597656 47.359375 L 20.210938 47.359375 L 21.523438 46.425781 "/>
<path style=" stroke:none;fill-rule:nonzero;fill:rgb(97.65625%,69.273376%,4.675293%);fill-opacity:1;" d="M 154.769531 31.351562 C 152.757812 30.445312 152.121094 28.214844 152.9375 24.957031 C 153.476562 22.820312 153.953125 22.988281 153.953125 25.3125 C 153.953125 27.621094 154.441406 28.820312 155.597656 29.34375 C 156.820312 29.902344 157.382812 29.835938 158.183594 29.03125 C 159.53125 27.683594 158.867188 25.085938 156.765625 23.484375 C 155.671875 22.648438 154.578125 22.222656 150.675781 21.101562 C 143.835938 19.140625 140.914062 16.734375 140.914062 13.058594 C 140.914062 8.210938 148.023438 6.960938 154.011719 10.753906 C 155.667969 11.804688 156.253906 12.589844 155.855469 13.230469 C 155.734375 13.429688 155.222656 13.179688 154.675781 12.660156 C 154.148438 12.152344 152.894531 11.425781 151.890625 11.042969 C 146.535156 9.007812 141.753906 11.820312 144.675781 15.292969 C 146.050781 16.925781 147.8125 17.921875 151.789062 19.304688 C 155.871094 20.726562 157.324219 21.410156 158.484375 22.464844 C 159.8125 23.671875 160.652344 25.660156 160.652344 27.601562 C 160.652344 29.035156 160.46875 29.578125 159.683594 30.457031 C 158.519531 31.757812 156.488281 32.128906 154.769531 31.351562 "/>
<path style=" stroke:none;fill-rule:nonzero;fill:rgb(95.698547%,45.028687%,8.912659%);fill-opacity:1;" d="M 127.164062 47.410156 C 123.25 46.851562 123.996094 47.292969 123.996094 44.683594 C 123.996094 42.449219 123.800781 42.386719 124.566406 42.632812 C 127.621094 43.609375 132.46875 43.78125 134.371094 42.984375 C 135.710938 42.425781 136.203125 41.386719 135.640625 40.332031 C 135.246094 39.597656 133.933594 39.152344 128.914062 38.050781 C 127.453125 37.726562 125.746094 37.15625 125.125 36.777344 L 123.996094 36.089844 L 123.996094 26.972656 L 125.144531 26.273438 C 128.089844 24.472656 134.515625 23.707031 139.855469 24.523438 L 142.851562 24.976562 L 142.957031 27.355469 C 143.015625 28.664062 142.933594 29.734375 142.78125 29.730469 C 142.628906 29.726562 141.152344 29.480469 139.503906 29.183594 C 136.5 28.644531 134.011719 28.746094 132.632812 29.472656 C 131.71875 29.953125 131.410156 30.4375 131.402344 31.402344 C 131.394531 32.5 132.695312 33.058594 136.859375 33.75 C 143.046875 34.777344 144.96875 36.28125 144.96875 40.097656 C 144.96875 41.925781 144.796875 42.554688 143.96875 43.804688 C 141.761719 47.140625 134.558594 48.460938 127.164062 47.410156 "/>
<path style=" stroke:none;fill-rule:nonzero;fill:rgb(97.65625%,69.273376%,4.675293%);fill-opacity:1;" d="M 166.757812 27.976562 C 163.957031 26.578125 160.550781 23.144531 159.253906 20.410156 C 158.363281 18.535156 157.128906 13.828125 157.128906 12.304688 C 157.128906 12.007812 157.339844 11.761719 157.597656 11.761719 C 157.886719 11.761719 158.242188 12.53125 158.507812 13.707031 C 159.566406 18.449219 163.644531 24.058594 167.414062 25.964844 C 169.859375 27.199219 171.296875 27.207031 172.257812 25.988281 C 173.796875 24.03125 172.671875 21.671875 169.414062 20.019531 C 167.738281 19.171875 167.265625 18.332031 168.03125 17.558594 C 168.214844 17.375 169.183594 15.402344 170.183594 13.171875 C 171.644531 9.914062 172.035156 8.628906 172.183594 6.621094 C 172.363281 4.199219 172.339844 4.101562 171.355469 3.328125 C 170.574219 2.714844 170.039062 2.570312 169.015625 2.707031 C 164.917969 3.253906 161.007812 7.292969 160.421875 11.585938 C 160.050781 14.28125 159.472656 13.441406 159.691406 10.53125 C 160.164062 4.265625 164.191406 0.015625 169.664062 0.00390625 C 173.585938 -0.00390625 175.300781 1.757812 175.246094 5.738281 C 175.210938 8.328125 173.929688 11.972656 171.75 15.691406 C 171.074219 16.847656 170.519531 17.859375 170.519531 17.941406 C 170.519531 18.023438 171.128906 18.402344 171.875 18.78125 C 173.5625 19.644531 175.25 21.53125 175.789062 23.164062 C 176.351562 24.875 175.757812 26.953125 174.363281 28.125 C 172.757812 29.476562 169.636719 29.414062 166.757812 27.976562 "/>
</g>
</svg>

<svg xmlns="http://www.w3.org/2000/svg" width="176pt" height="77.04" viewBox="0 0 176 57.78"><defs><clipPath id="a"><path d="M47 24h27v33.781H47Zm0 0"/></clipPath></defs><g clip-path="url(#a)"><path d="m49.633 57.633-1.938-.23-.105-2.641-.102-2.645 1.922.117c2.27.141 4.32-.675 4.903-1.957.554-1.215.082-2.949-3.235-11.906-1.582-4.266-2.812-8.008-2.734-8.32.074-.313.914-1.61 1.86-2.883l1.718-2.316 4.668-.051 1.367 6.926c.75 3.808 1.54 7.164 1.754 7.457.953 1.304 1.406.148 2.8-7.118l1.387-7.265h9.618l-.973 3.086c-6.176 19.531-6.793 21.129-9.672 25.043-.902 1.226-2.43 2.722-3.523 3.445-1.774 1.18-2.16 1.29-4.852 1.383-1.61.058-3.797 0-4.863-.125" style="stroke:none;fill-rule:nonzero;fill:#f47317;fill-opacity:1"/></g><path d="m4.168 47.438-4.137-.66.055-2.829c-.106-2.37-.356-2.09 1.07-1.676 4.567 1.317 9.489 1.66 11.38.508 1.44-.879 1.55-2.191.25-3.043-.493-.324-2.438-.898-4.317-1.281-5.696-1.156-7.88-2.656-8.371-5.75-.953-5.95 5.843-9.457 16.14-8.332 5.035.55 4.848.426 4.848 3.11 0 2.574.289 2.449-3.879 1.703-3.684-.66-6.125-.41-7.281.75-.985.984-1.04 1.609-.207 2.359.636.578 1.562.828 6.949 1.879 2.73.531 3.355.797 4.543 1.902 1.176 1.098 1.398 1.547 1.55 3.117.212 2.223-.546 4.45-1.984 5.832-2.656 2.54-10 3.606-16.609 2.41M83.934 30.086c2.488 0 3.757 1.894 3.757 5.582 0 2.508-.457 4.16-1.453 5.223-.851.902-3.101 1.129-4.308.43-1.047-.61-1.64-2.56-1.64-5.387 0-4.246 1.003-5.848 3.644-5.848M70.422 13.863v9.172h1.914c1.27 0 2.102.195 2.469.563.304.304.55.578.55.617s-1.109 3.55-2.468 7.808c-2.422 7.602-2.465 7.817-2.465 11.543v3.79h9.164v-1.688c0-1.54.441-2.543 1.11-2.543.144 0 .609.645 1.046 1.422.832 1.48 1.887 2.36 3.656 3.05 2.965 1.16 7.547.165 9.848-2.136 1.961-1.961 2.703-4.102 2.93-8.523.37-7.22-2.125-11.454-7.39-12.56-2.532-.53-4.356-.476-7.497 1.673-1.293.887-2.16 1.844-2.328 1.676-.164-.165-.344-3.317-.395-6.993l-.367-6.82z" style="stroke:none;fill-rule:nonzero;fill:#f47317;fill-opacity:1"/><path d="M100.238 47.543c-.758-.273-1.672-.79-2.035-1.152-.648-.645-.64-.703.211-2.578 2.492-5.481 1.95-13.383-1.191-17.286-.586-.734-1.203-1.64-1.203-1.75l10.355.024V40.34l.863.867c1.215 1.211 3.067 1.184 4.047-.062.688-.875.73-1.375.73-8.637V24.8h10.22v22.558h-9.516v-1.773c0-2.36-.672-2.621-2.403-.941-3.058 2.968-6.832 4.054-10.078 2.898M21.523 46.426c1.825-1.301 2.899-3.637 2.891-6.293-.012-2.664-.883-4.528-2.68-5.719-1.035-.684-1.355-1.129-1.355-1.883 0-.812.168-1.004.969-1.097l.968-.11.204-7.594-1.082-.214-1.079-.215.098-4.625.055-4.758 10.086.016v9.972c0 13.117-.164 12.946 5.109 5.297l3.031-4.402h5.668c4.477 0 5.64-.086 5.371.262-4.578 5.94-6.843 9.222-6.843 9.687 0 .535 5.851 10.316 6.93 11.578.257.309.472.664.472.793 0 .133-2.606.238-5.79.238h-5.792l-.672-.968c-.371-.536-1.824-3.075-3.234-5.641-1.407-2.57-2.707-4.766-2.891-4.879-.18-.113-.562-.012-.844.223-.41.34-.515 1.531-.515 5.843v5.422H20.21z" style="stroke:none;fill-rule:nonzero;fill:#f47317;fill-opacity:1"/><path d="M154.77 31.352c-2.012-.907-2.649-3.137-1.833-6.395.54-2.137 1.016-1.969 1.016.355 0 2.31.488 3.508 1.645 4.032 1.222.558 1.785.492 2.586-.313 1.347-1.347.683-3.945-1.418-5.547-1.094-.836-2.188-1.261-6.09-2.382-6.84-1.961-9.762-4.368-9.762-8.043 0-4.848 7.11-6.098 13.098-2.305 1.656 1.05 2.242 1.836 1.843 2.476-.12.2-.632-.05-1.18-.57-.527-.508-1.78-1.234-2.784-1.617-5.356-2.035-10.137.777-7.215 4.25 1.375 1.633 3.137 2.629 7.113 4.012 4.082 1.422 5.535 2.105 6.695 3.16 1.328 1.207 2.168 3.195 2.168 5.137 0 1.433-.183 1.976-.968 2.855-1.164 1.3-3.196 1.672-4.914.895" style="stroke:none;fill-rule:nonzero;fill:#f9b10c;fill-opacity:1"/><path d="M127.164 47.41c-3.914-.558-3.168-.117-3.168-2.726 0-2.235-.195-2.297.57-2.051 3.055.976 7.903 1.148 9.805.351 1.34-.558 1.832-1.597 1.27-2.652-.395-.734-1.707-1.18-6.727-2.281-1.46-.324-3.168-.895-3.789-1.274l-1.129-.687v-9.117l1.149-.7c2.945-1.8 9.37-2.566 14.71-1.75l2.997.454.105 2.378c.059 1.31-.023 2.38-.176 2.375-.152-.003-1.629-.25-3.277-.546-3.004-.54-5.492-.438-6.871.289-.914.48-1.223.965-1.23 1.93-.008 1.097 1.292 1.656 5.456 2.347 6.188 1.027 8.11 2.531 8.11 6.348 0 1.828-.172 2.457-1 3.707-2.207 3.336-9.41 4.656-16.805 3.605" style="stroke:none;fill-rule:nonzero;fill:#f47317;fill-opacity:1"/><path d="M166.758 27.977c-2.801-1.399-6.207-4.832-7.504-7.567-.89-1.875-2.125-6.582-2.125-8.105 0-.297.21-.543.469-.543.289 0 .644.77.91 1.945 1.058 4.742 5.137 10.352 8.906 12.258 2.445 1.234 3.883 1.242 4.844.023 1.539-1.957.414-4.316-2.844-5.968-1.676-.848-2.148-1.688-1.383-2.461.184-.184 1.153-2.157 2.153-4.387 1.46-3.258 1.851-4.543 2-6.55.18-2.423.156-2.52-.829-3.294-.78-.613-1.316-.758-2.34-.621-4.097.547-8.007 4.586-8.593 8.879-.371 2.695-.95 1.855-.73-1.055.472-6.265 4.5-10.515 9.972-10.527 3.922-.008 5.637 1.754 5.582 5.734-.035 2.59-1.316 6.235-3.496 9.953-.676 1.157-1.23 2.168-1.23 2.25s.609.461 1.355.84c1.688.864 3.375 2.75 3.914 4.383.563 1.711-.031 3.79-1.426 4.961-1.605 1.352-4.726 1.29-7.605-.148" style="stroke:none;fill-rule:nonzero;fill:#f9b10c;fill-opacity:1"/></svg>
